X: 1
T: Purple Headed Monster, The
M: 6/8
L: 1/8
R: jig
K: Ador
AeB cdB |AGE GAB  | deg agb | {b}age dBG |
AEE CEB | AGE GAB | ded BAG | BAA A2G |
AeB cdB |AGE GAB  | deg agb | {b}age dBG |
AEE c2B | AGE GAB | ded BAG | BAA Adc |
Bdd gdb  |dgb {b}aec  | Bdg bgd | cee {g}edc |
Bdd gdb| dgb aec | Bdd {f}dcA | AGF G2c |
Bdd gdb  |dgb {b}aec  | Bdg bgd | cee {g}edc |
Bdd gdb| dgb aec | Bdd {f}dcA | AGF GcB |
